!!!OTL: 126b. Zu spaete Reue (Lachen und Weinen).
!!!ARE: Europa, Mitteleuropa, Deutschland, Schlesien
!!!SCT: E0126A
!!!TXL: @@DE
!!!YEM: Copyright 1995, estate of Helmut Schaffrath.
**kern	**text
*ICvox	*
*M6/8	*
*k[b-]	*
*F:	*
!LO:TX:a:t=Aus Schleſien.	!
{8c	Es
=1	=1
8f	hüt't
8f	ſich
8f	ein
8aL	Mä-
8fJ	-del
8a	die
=2	=2
4cc	Läm-
8cc	-me-
4a	-lein
8cc	am
=3	=3
(4b-/	Rai-
8g)	.
4a}	-ne,
{8c	Da
=4	=4
8f	kam
8f	ſich
8f	ein
8aL	luſ-
8fJ	-ti-
8a	-ger
=5	=5
4cc	Maurer-
8cc	-ge-
4a	-ſell
8cc	vom
=6	=6
(4b-/	Wei-
8g)	.
4a}	-ne.
{8a	Feins
=7	=7
8b-/	Mäd-
8b-/	-chen,
8b-/	feins
8g	Mäd-
8g	-chen,
8g	was
=8	=8
[8.cc	ma-
16cc]	-cheſt
8cc	du
4a}	hier?
{8a	Du
=9	=9
8b-/	hü-
8b-/	-teſt
8b-/	die
8g	Lämm-
8g	-lein
8g	und
=10	=10
[8.cc	wei-
16cc]	-deſt
8cc	das
4a}	Vieh!
{8cc	Da
=11	=11
8.ff	lach-
16cc	-te
8cc	das
8a	Mä-
8f	-del
8cc	ſo
=12	=12
(4b-/	ſeh-
8g)	.
4a}	-re.
==	==
!!!AGN: erzaehlendes Volks - Lied, Schalk -, Schelmen - Lied, betrogene Liebe, Ballade ?
!!!ONB: ESAC (Essen Associative Code) Database: ERK1
!!!AMT: compound duple
!!!AIN: vox
!!!EED: Helmut Schaffrath
!!!EEV: 1.0
!!!GTL: Schalks- und Schlemenlieder (Liebesabenteuer und betrogene Liebe)
!!!URL-scan: https://rosdok.uni-rostock.de/mcrviewer/recordIdentifier/rosdok_ppn745146120/iview2/phys_0506.iview2?x=127.40334616282644&y=1640.7838219122496&scale=0.6830750172916054&rotation=0&layout=singlePageLayout
!!!ENC: Anna Maria Matuszewska
!!!EEV: 2024/03/12
*-	*-
